!!!OTL: Der Zimmergesell.
!!!OTL-incipit: ES WAR EINMAL EIN ZIMMERGESELL
!!!ARE: Europa, Mitteleuropa, Deutschland, Rhein
!!!SCT: Z1026
!!!TXL: @@DE
!!!YEM: Copyright 1995, estate of Helmut Schaffrath.
**kern	**text
*ICvox	*
*M2/4	*
*k[]	*
*a:	*
!LO:TX:a:t=Vorſänger.	!
!LO:TX:a:t=Vom Rheine.	!
{8e	Es
=1	=1
8a	war
8cc	ein-
8b	-mal
8a	ein
=2	=2
8a	Ʒim-
16g#	-mer-
16g#	-ge-
8g#}	-ſell,
{8e	war
=3	=3
8a	gar
8b/	ein
8cc	jung
8dd	friſch
=4	=4
4b	Blut,
8r}	.
{8a	er
=5	=5
8cc	baut
8b	dem
8cc	jun-
8a	-gen
=6	=6
8dd	Markgraf
16dd	.
16dd	ein
4ee}	Haus;
=7	=7
!LO:TX:a:t=Alle.	!
{8.a	ʒweifle
16b/	.
8cc/	nicht,
8a	mein
=8	=8
8g#	Schatʒ,
8f	mein
8e}	Kind,
{8b/	er
=9	=9
8cc/	baut
8b/	dem
8cc/	jun-
16a	-gen
16a	Mark-
=10	=10
8dd/	-graf
8dd/	ein
8ee/}	Haus,
{8cc/	ſechs-
=11	=11
8b/	-hun-
8a	-dert
8g#	La-
16b/	-den
16b/	hin-
=12	=12
4a	-aus.
8r}	.
==	==
!!!AGN: Romanze, Ballade, Handwerker - Lied
!!!ONB: ESAC (Essen Associative Code) Database: ZUCCAL
!!!AMT: simple duple
!!!AIN: vox
!!!EED: Helmut Schaffrath
!!!EEV: 1.0
!!@@COMMENT:"In original fragments for two - three voices"
!!@@END:
!!!GTL: I. Volks- Leuschen.
!!!URL-scan: https://www.digitale-sammlungen.de/de/view/bsb11160573?page=68
!!!ENC: Anna Maria Matuszewska
!!!EEV: 2025/03/02
*-	*-
